svg/icon/kmd.svg

<svg width="96" height="96" viewBox="0 0 96 96" fill="none" xmlns="http://www.w3.org/2000/svg">
<g id="icon/kmd" clip-path="url(#clip0)">
<g id="Group">
<g id="Oval" filter="url(#filter0_d)">
<path d="M48 90C72.8528 90 93 69.8528 93 45C93 20.1472 72.8528 0 48 0C23.1472 0 3 20.1472 3 45C3 69.8528 23.1472 90 48 90Z" fill="#2B6680"/>
<path d="M48 90C72.8528 90 93 69.8528 93 45C93 20.1472 72.8528 0 48 0C23.1472 0 3 20.1472 3 45C3 69.8528 23.1472 90 48 90Z" fill="url(#paint0_linear)" style="mix-blend-mode:soft-light"/>
<path d="M91.5 45C91.5 69.0244 72.0244 88.5 48 88.5C23.9756 88.5 4.5 69.0244 4.5 45C4.5 20.9756 23.9756 1.5 48 1.5C72.0244 1.5 91.5 20.9756 91.5 45Z" stroke="black" stroke-opacity="0.0970052" style="mix-blend-mode:soft-light"/>
</g>
</g>
<g id="Layer 2">
<g id="Layer 1">
<path id="Vector" d="M18.0001 45.0006C17.9848 52.9571 21.131 60.5938 26.7463 66.2306C32.3616 71.8674 39.9862 75.0427 47.9427 75.0579C55.8992 75.0731 63.5358 71.927 69.1727 66.3117C74.8095 60.6964 77.9848 53.0718 78 45.1153V44.8859C77.9898 42.5766 77.7144 40.276 77.1793 38.0295C77.0814 37.6185 76.9035 37.2307 76.6557 36.8885C76.408 36.5462 76.0952 36.256 75.7353 36.0346C75.3755 35.8132 74.9755 35.6648 74.5583 35.598C74.1411 35.5312 73.7148 35.5471 73.3037 35.6451C72.8927 35.743 72.505 35.9209 72.1627 36.1686C71.8204 36.4164 71.5303 36.7291 71.3089 37.089C71.0875 37.4489 70.9391 37.8488 70.8722 38.266C70.8054 38.6832 70.8214 39.1095 70.9193 39.5206C72.1151 44.5149 71.6476 49.763 69.5878 54.4673C67.528 59.1715 63.9886 63.0746 59.5075 65.5832C55.0265 68.0918 49.8489 69.0688 44.7618 68.3655C39.6748 67.6622 34.9564 65.3172 31.3241 61.687C27.6917 58.0567 25.3439 53.3397 24.6377 48.2531C23.9315 43.1664 24.9054 37.9883 27.4113 33.5058C29.9173 29.0233 33.8183 25.4815 38.5214 23.419C43.2245 21.3564 48.4723 20.8859 53.4673 22.0788C54.2974 22.2765 55.1721 22.1364 55.8989 21.6892C56.6257 21.242 57.1451 20.5245 57.3428 19.6943C57.5406 18.8642 57.4004 17.9895 56.9533 17.2627C56.5061 16.5359 55.7885 16.0165 54.9584 15.8188C50.5505 14.7673 45.9617 14.728 41.5365 15.7041C37.1112 16.6801 32.9647 18.646 29.4081 21.4543C25.8516 24.2625 22.9774 27.84 21.0016 31.9181C19.0258 35.9962 17.9996 40.469 18.0001 45.0006" fill="white"/>
<path id="Vector_2" d="M63.1631 23.0577C63.1198 23.0985 63.0917 23.1469 63.051 23.1902C62.3194 23.9658 61.8705 24.9651 61.7765 26.0271V26.0271C61.7765 26.1953 61.7765 26.3636 61.7765 26.5369C61.7765 26.6541 61.751 26.7688 61.7383 26.8861C61.6181 28.1001 61.2399 29.2744 60.6292 30.3305C60.0185 31.3866 59.1892 32.3 58.1969 33.0097C57.2046 33.7194 56.0722 34.209 54.8755 34.4457C53.6787 34.6824 52.4452 34.6608 51.2574 34.3822C51.0416 34.3347 50.8275 34.276 50.6151 34.2064C48.8389 33.7735 46.983 33.7887 45.2142 34.2505C43.4453 34.7123 41.8188 35.6062 40.4809 36.8521C40.3713 36.954 40.2515 37.0407 40.1444 37.1478C38.0627 39.2295 36.8932 42.0529 36.8932 44.9969C36.8932 47.941 38.0627 50.7644 40.1444 52.8461C42.2262 54.9279 45.0496 56.0974 47.9936 56.0974C50.9376 56.0974 53.7611 54.9279 55.8428 52.8461C56.3021 52.3799 56.7185 51.8732 57.0866 51.3321C57.9828 50.049 58.5973 48.5908 58.8899 47.0532C59.1825 45.5157 59.1464 43.9337 58.7842 42.4111C58.7205 42.2098 58.6695 42.011 58.621 41.8071C58.621 41.7765 58.6032 41.7484 58.5956 41.7178C58.3194 40.5206 58.3039 39.2779 58.55 38.0741C58.7962 36.8703 59.2983 35.7335 60.0222 34.7407C60.7462 33.7479 61.6751 32.9224 62.7461 32.3201C63.8171 31.7178 65.005 31.3527 66.2294 31.2497C66.2931 31.2497 66.3543 31.2319 66.418 31.2293C66.599 31.2293 66.7799 31.2089 66.9609 31.2089H67.0042C68.1127 31.1071 69.1502 30.619 69.9354 29.83C70.1216 29.6366 70.292 29.4286 70.4452 29.2081C71.1366 28.2306 71.4362 27.0292 71.2847 25.8415C71.1331 24.6537 70.5415 23.5661 69.6267 22.7935C68.7119 22.021 67.5406 21.6197 66.3443 21.6691C65.1479 21.7185 64.0136 22.2149 63.1656 23.0603" fill="white"/>
</g>
</g>
</g>
<defs>
<filter id="filter0_d" x="0" y="-1.5" width="96" height="96" filterUnits="userSpaceOnUse" color-interpolation-filters="sRGB">
<feFlood flood-opacity="0" result="BackgroundImageFix"/>
<feColorMatrix in="SourceAlpha" type="matrix" values="0 0 0 0 0 0 0 0 0 0 0 0 0 0 0 0 0 0 127 0"/>
<feOffset dy="0.5"/>
<feGaussianBlur stdDeviation="0.5"/>
<feColorMatrix type="matrix" values="0 0 0 0 0 0 0 0 0 0 0 0 0 0 0 0 0 0 0.199474 0"/>
<feBlend mode="normal" in2="BackgroundImageFix" result="effect1_dropShadow"/>
<feBlend mode="normal" in="SourceGraphic" in2="effect1_dropShadow" result="shape"/>
</filter>
<linearGradient id="paint0_linear" x1="3" y1="0" x2="3" y2="90" gradientUnits="userSpaceOnUse">
<stop stop-color="white" stop-opacity="0.5"/>
<stop offset="1" stop-opacity="0.5"/>
</linearGradient>
<clipPath id="clip0">
<rect width="32" height="32" fill="white" transform="scale(3)"/>
</clipPath>
</defs>
</svg>

<svg width="96" height="96" viewBox="0 0 96 96" fill="none" xmlns="http://www.w3.org/2000/svg"><g clip-path="url(#clip0)"><g filter="url(#filter0_d)"><path d="M48 90c24.853 0 45-20.147 45-45S72.853 0 48 0 3 20.147 3 45s20.147 45 45 45z" fill="#2B6680"/><path d="M48 90c24.853 0 45-20.147 45-45S72.853 0 48 0 3 20.147 3 45s20.147 45 45 45z" fill="url(#paint0_linear)" style="mix-blend-mode:soft-light"/><path d="M91.5 45c0 24.024-19.476 43.5-43.5 43.5S4.5 69.024 4.5 45 23.976 1.5 48 1.5 91.5 20.976 91.5 45z" stroke="#000" stroke-opacity=".097" style="mix-blend-mode:soft-light"/></g><g fill="#fff"><path d="M18 45a30 30 0 1060 .115v-.23a30.21 30.21 0 00-.82-6.855 3.216 3.216 0 00-5.871-.941 3.219 3.219 0 00-.39 2.432 23.577 23.577 0 11-17.452-17.442 3.218 3.218 0 001.491-6.26A29.997 29.997 0 0018 45"/><path d="M63.163 23.058c-.043.04-.071.089-.112.132a4.744 4.744 0 00-1.275 2.837v.51c0 .117-.025.232-.038.35a8.567 8.567 0 01-11.123 7.32 11.036 11.036 0 00-10.134 2.645c-.11.102-.23.189-.337.296a11.1 11.1 0 1015.699 15.698c.46-.466.875-.973 1.244-1.514a11.094 11.094 0 001.697-8.92 8.502 8.502 0 01-.163-.605c0-.03-.018-.059-.025-.09a8.572 8.572 0 017.633-10.467c.064 0 .125-.018.189-.02.181 0 .362-.021.543-.021h.043a4.748 4.748 0 002.931-1.379c.187-.193.357-.401.51-.622a4.782 4.782 0 00-7.28-6.148"/></g></g><defs><linearGradient id="paint0_linear" x1="3" y1="0" x2="3" y2="90" gradientUnits="userSpaceOnUse"><stop stop-color="#fff" stop-opacity=".5"/><stop offset="1" stop-opacity=".5"/></linearGradient><clipPath id="clip0"><path fill="#fff" transform="scale(3)" d="M0 0h32v32H0z"/></clipPath><filter id="filter0_d" x="0" y="-1.5" width="96" height="96" filterUnits="userSpaceOnUse" color-interpolation-filters="sRGB"><feFlood flood-opacity="0" result="BackgroundImageFix"/><feColorMatrix in="SourceAlpha" values="0 0 0 0 0 0 0 0 0 0 0 0 0 0 0 0 0 0 127 0"/><feOffset dy=".5"/><feGaussianBlur stdDeviation=".5"/><feColorMatrix values="0 0 0 0 0 0 0 0 0 0 0 0 0 0 0 0 0 0 0.199474 0"/><feBlend in2="BackgroundImageFix" result="effect1_dropShadow"/><feBlend in="SourceGraphic" in2="effect1_dropShadow" result="shape"/></filter></defs></svg>
